X:1
T:6 Lieder, Op.19
T:Durch Carthago's Trümmerhallen
T:2. Durch Carthago's Trümmerhallen
T:Johanna Kinkel
T:Gottfried Kinkel
T:6 Lieder, Op.19 (für Alt oder Bariton) 
T:Creative Commons copyright waiver (CC0 1.0 Universal)
T:Creative Commons copyright waiver (CC0 1.0 Universal)
C:Johanna Kinkel
Z:Gottfried Kinkel
Z:Creative Commons copyright waiver (CC0 1.0 Universal)
%%score ( 1 2 ) { ( 3 6 ) | ( 4 5 ) }
L:1/8
Q:1/4=55
M:3/4
K:Ab
V:1 treble nm="Singstimme\nVoice"
V:2 treble 
V:3 treble nm="Pianoforte"
V:6 treble 
V:4 bass 
V:5 bass 
V:1
"^Lento, ma non troppo" z6 | !fermata!z6 |: c4 c2 | (c2 d2) dc | (c3 B) AB | (=B2 c2) c_B | A4 c2 | %7
w: ||1. Durch Car-|tha- * go's *|Trüm- * mer- *|hal- * len *|su- chend|
w: ||2. Durch E-|gÿp- * tens *|rei- * che *|Flu- * ren *|zog ich|
w: ||3. Ca- na-|an! * zu *|süs * ser *|La- * be *|dei- nen|
 (c2 B2) F2 |{/A} (G2 F2) G2 | A4 z2 | c4 c2 | (c3 =A) GF | B4 B2 | (B3 G) FE | (A2 _c2) d2 | %15
w: bin * ich|um- * ge-|schweift,|wo in|heis- * sem *|Mit- tag|wal- * len *|voll * die|
w: an * dem|Pil- * ger-|stab;|al- ter|Grös- * se *|heil'- ge|Spu- * ren *|trägt * manch|
w: Grund * be-|trat * ich|nun,|wo an|des * Er- *|lö- sers|Gra- * be *|al- * le|
 e4 =cA | (E3 F) DB, | A,4 z2 | z6 | z6 | z6 | z6 | f4 d2 | c3/2 d/ e3 _G | B2 A2 z2 | z6 | %26
w: gold'- ne *|Ernd- * te *|reift.|||||Und ich|sah wie bunt zum|Kran- ze||
w: präch- tig *|Kö- * nigs- *|grab.|||||Auf den|Pÿ- ra- mi- den|leuch- tet||
w: Er- den- *|sor- * gen *|ruhn.|||||Gläu- big|bin ich hin- ge-|sun- ken||
 =B4 B2 | c4 =A2 | (G3 B) =AG | F4 z2 | (=A3 B) G=d | c4 =A2 | =A3 B G=d | c4 =A2 | c4 c2 | B4 z2 | %36
w: Meer und|Er- de|sich * ver- *|flicht|un- * ter *|kla- rem|Him- * mels- *|glan- ze|a- ber|ach,|
w: un- be-|wölkt der|Son- * ne *|Licht,|weit * der *|Strom das|Land * be- *|feuch- tet|a- ber|ach,|
w: auf mein|flam- mend|An- * ge- *|sicht,|Him- * mels- *|lust hab'|ich * ge- *|trun- ken|a- ber|ach,|
 d2 c2 B2 | A4 z2 | z6 | z6 | _G4 G2 | F4 z2 | d6 | (c6 |"^rall." cdcB) (3(!turn!G!fermata!BA) | %45
w: ihn fand ich|nicht,|||a- ber|ach,|ihn|fand|_ _ _ _ ich * *|
w: ihn fand ich|nicht,|||a- ber|ach,|ihn|fand|_ _ _ _ ich * *|
w: ihn fand ich|nicht,|||a- ber|ach,|ihn|fand|_ _ _ _ ich * *|
"_(Gottfried Kinkel.)" F6 | z6 | z6 | z6 | z6 | !fermata!z6 :| %51
w: nicht!||||||
w: nicht!||||||
w: nicht!||||||
V:2
 x6 | x6 |: x6 | x6 | x6 | x6 | x6 | x6 | x6 | x6 | x6 | x6 | x6 | x6 | x6 | x6 | x4 EG | A4 x2 | %18
 x6 | x6 | x6 | x6 | x6 | x6 | x6 | x6 | x6 | x6 | x6 | x6 | x6 | x6 | x6 | x6 | x6 | x6 | x6 | %37
 x6 | x6 | x6 | x6 | x6 | x6 | x6 | x6 | x6 | x6 | x6 | x6 | x6 | x6 :| %51
V:3
 z [FAcf] z [FAcf] z [FBf] | !fermata![FAf]6 |: z [FAc] z [FAc] z [FAc] | %3
 z [Fce] z [FBd] z [E_Ac] | z [FAc] z [EB] z [DGB] | z [EG=B] z [EAc] z [CGB] | %6
 z"^can't connect the beams because of rests in between" [CFA] z [CFc] z [CFc] | %7
 z [Ec] z [DFB] z [B,FA] | z [B,EG] z [EGB] z!<(! [EGd] | z!<)! ([cc']a[cf]e[Bd]) | ([Ac]GABcB) | %11
 (=A[EB]c[EA]B[Ec]) | z [DFB] z [DFB] z [D_FB] | B3 G [_CFA][B,EG] |!<(! z6!<)! | %15
!>(! z4 [CEA][CEA]!>)! | AAGFEG | [CEA]!<(! (c'gaf=d)!<)! | e_fegc'g | baga(f=d | fe=de_dB | %21
 A2) z2 z2 |!mf! [FAdf]6 | [E_Gce]6 | [Fd]6 |!>(! [Fdf]>[Fce] [FBd]2 [FAc]2!>)! | %26
 ([F=B]=EFA[GB]!<(!F) | ([=Ac]!<)!=afcAF) | (!>!F=E=DCDE | F)"_espress." (=a=eg=dc) | (c4 B2) | %31
 ([F=A]=a=ef=dc) | (c4 B2) | ([F=A]2 [A=a][Gg][Ff][=E=e]) | %34
"^here I get a double 'mol' \n\n" (([__E__e]2 [Dd]2 [Cc]2)) | [B,GB]2 z2 z2 | (d2 c2 B2) | %37
 [FA]2 z4 | (([Aa]2 [Gg]2 [Ff]2)) |"_marcato." [Ece] (EGcee) | !>![E_Ge]4 [EG]2 | (!>!BA=GAFD) | %42
 z (d'b_gdB | A) (c'afd=B) | [=E__Bc]2 z2 !fermata![EBc=e] z | (Acfagf) | [GB=e]6 | (Acfagf) | %48
 [GB=e]6 | z [FAcf] z [FAcf] z [FAcf] |!f! !fermata![FAf]6 :| %51
V:4
!p! (F,G,A,F,B,D) | !fermata![F,C]6 |: (F,G,A,F,G,A, | !>!=A,B,F,D,B,,C, | D,=D,E,G,F,E, | %5
 !>!G,A,E,C,=D,=E,) | (F,G,A,F,G,A, | !>!=A,B,)B,,C,D,=D, |{/E,} E,=D,E,_D,C,B,, | %9
 A,,[E,B,]C,[E,A,]E,G, |!p! z [CE] z [CE] z [CE] | (F,[G,C]=A,[F,C]G,[A,C]) | (B,CDCB,A, | %13
 G,A,B,E,=D,E,) | _F,2 F,2 [_F,,F,]2 | [E,,E,]6 | [E,,E,]4 z2 | [A,,A,]4 z2 | [A,EG]2 z2 [A,E]2 | %19
 [A,E]2 z2 =D,F, | E,4 E,2 | (A,G,A,B,_G,E,) | [D,A,D]6 | [D,A,D]6 | [D,D]2 z2 [D,D][C,C] | %25
 [B,,B,]4 [C,C][C,C] |!p! [D,D]2 z2 [D,D]2 | [C,F,C]4 [C,F,C]2 | [C,G,B,]4 [C,G,B,]2 | %29
 [F,=A,]C[F,A,]C[F,A,]C | =ECECEC | F,C[F,=A,]C[F,A,]C | =ECECE(C | [F,C]2) z2 z2 | [=D,,=D,]6 | %35
 [G,,D,]2 (B,=A,G,F,) | (B,2 C2 D2) | [F,C]2 (F,E,D,C,) | (F,2 G,2 A,2) | [C,G,]2 z4 | [C,A,]6 | %41
 [D,A,]2 z4 | [B,,D,_G,B,]6 | [C,F,A,C]6 | [C,G,C]2 z2 !fermata![C,C] z | [F,C]6 | %46
!<(! B,C!<)!!>!D__E/D/CB, | C6 |!<(! B,C!<)!!>!DE/D/CB, |!<(! C(G,A,F,B,D)!<)! | !fermata![F,C]6 :| %51
V:5
 x6 | x6 |: x6 | x6 | x6 | x6 | x6 | x6 | x6 | A,,2 C,2 E,2 | A,4 _G,2 | x6 | x6 | x6 | x6 | x6 | %16
 x6 | x6 | x6 | x6 | x4 B,D | C2 x4 | x6 | x6 | x6 | x6 | x6 | x6 | x6 | x6 | F,6 | x6 | F,6 | x6 | %34
 x6 | x6 | =E,6 | x6 | =B,,6 | x6 | x6 | x6 | x6 | x6 | x6 | x6 | (F,6 | F,6) | (F,6 | F,) x x4 | %50
 x6 :| %51
V:6
 x6 | x6 |: x6 | x6 | x6 | x6 | x6 | x6 | x6 | x6 | x6 | x6 | x6 | [EB]4 x2 | [A,_CA]6 | %15
 [=CEA=c]4 x2 | [B,D]4 [B,D]2 | x6 | ([Bd]2 z2 d2 | c2 z2 =B2) | [Ac]2 z2 G2 | x6 | x6 | x6 | x6 | %25
 x6 | x6 | x6 | x6 | x6 | x6 | x6 | x6 | x6 | [FA]6 | x6 | G6 | x6 | =d6 | x6 | x6 | [DF]2 z4 | %42
 x6 | x6 | x6 | x6 | x6 | x6 | x6 | x6 | x6 :| %51

